src/assets/icons/bpmIcon.svg

<svg width="24" height="24" viewBox="0 0 24 24" fill="none" xmlns="http://www.w3.org/2000/svg">
<g id="bpm">
<path id="bpmIcon" fill-rule="evenodd" clip-rule="evenodd" d="M2.83837 6.04691C2.18522 6.80932 1.78947 7.85097 1.78947 8.93846C1.78947 9.56947 1.90778 10.1732 2.11606 10.7481H6.00154L7.51722 8.27643L8.46434 11.317L9.6233 9.9502H12.5263V10.7709H10.0609L8.08829 13.0973L7.24594 10.3929L6.52478 11.5688H0V10.7481H1.17921C0.997779 10.1741 0.894737 9.56988 0.894737 8.93846C0.894737 7.67649 1.3516 6.45411 2.13485 5.53983C2.92024 4.62302 4.05141 4 5.38238 4C6.94978 4 8.1417 4.80569 8.94737 5.94256C9.75299 4.80574 10.9449 4 12.5124 4C13.8435 4 14.9746 4.62313 15.76 5.53995C16.5432 6.45431 17 7.67669 17 8.93846C17 11.6396 14.9673 13.8953 13.0442 15.4351C12.0716 16.2137 11.1012 16.8301 10.3748 17.2515C10.0112 17.4625 9.70758 17.6253 9.49392 17.7359C9.38704 17.7911 9.30258 17.8334 9.24424 17.8621C9.21512 17.8764 9.19248 17.8874 9.17682 17.8949L9.15871 17.9036L9.15365 17.9059L9.15217 17.9067L9.15168 17.9069C9.15168 17.9069 9.15137 17.9071 8.94737 17.5418C8.7533 17.9116 8.75317 17.9115 8.75317 17.9115L8.75048 17.9103L8.74426 17.9075L8.72167 17.8974C8.70226 17.8885 8.67412 17.8756 8.63797 17.8588C8.56567 17.8249 8.46121 17.7751 8.32982 17.7097C8.06713 17.579 7.69617 17.3859 7.25891 17.1343C6.38601 16.632 5.24097 15.8923 4.16419 14.9459C3.58982 14.4412 3.03195 13.875 2.54445 13.252C2.40038 13.0679 2.44632 12.8115 2.64704 12.6793C2.84777 12.5472 3.12728 12.5893 3.27134 12.7735C3.72072 13.3478 4.24025 13.8762 4.78317 14.3533C5.80273 15.2494 6.89453 15.9558 7.73437 16.439C8.15351 16.6802 8.50792 16.8646 8.75648 16.9883C8.82703 17.0234 8.88903 17.0536 8.94146 17.0788C8.97524 17.0617 9.01295 17.0424 9.05442 17.021C9.25663 16.9164 9.54716 16.7606 9.89655 16.5579C10.5962 16.1519 11.5271 15.5603 12.4558 14.8167C14.3353 13.3119 16.1053 11.2659 16.1053 8.93846C16.1053 7.85113 15.7096 6.80948 15.0565 6.04703C14.4055 5.28709 13.5165 4.82072 12.5124 4.82072C11.1243 4.82072 10.0476 5.64997 9.34893 6.95532L8.94737 7.70558L8.54581 6.95532C7.84707 5.64989 6.77043 4.82072 5.38238 4.82072C4.37831 4.82072 3.48934 5.28701 2.83837 6.04691ZM8.94737 17.5418L8.75317 17.9115L8.95359 18L9.15168 17.9069L8.94737 17.5418Z" fill="white"/>
</g>
</svg>

<svg xmlns="http://www.w3.org/2000/svg" width="24" height="24" fill="none"><path fill="#fff" fill-rule="evenodd" d="M2.838 6.047A4.5 4.5 0 0 0 1.79 8.938c0 .631.119 1.235.327 1.81h3.886l1.515-2.472.947 3.041 1.16-1.367h2.902v.82h-2.465l-1.973 2.327-.842-2.704-.721 1.176H0v-.82h1.18a6 6 0 0 1-.285-1.81c0-1.263.457-2.485 1.24-3.4C2.92 4.624 4.05 4 5.382 4c1.568 0 2.76.806 3.565 1.943C9.753 4.806 10.945 4 12.512 4c1.332 0 2.463.623 3.248 1.54A5.26 5.26 0 0 1 17 8.938c0 2.702-2.033 4.957-3.956 6.497a22 22 0 0 1-3.867 2.46l-.018.009-.005.002h-.002l-.205-.364-.194.37-.003-.002-.006-.003-.022-.01-.084-.038a20.289 20.289 0 0 1-1.38-.724c-.872-.503-2.017-1.243-3.094-2.19a12.7 12.7 0 0 1-1.62-1.693.39.39 0 0 1 .103-.573c.2-.132.48-.09.624.095.45.574.97 1.102 1.512 1.58 1.02.895 2.112 1.602 2.951 2.085a19 19 0 0 0 1.207.64l.113-.058a21.102 21.102 0 0 0 3.401-2.204c1.88-1.505 3.65-3.551 3.65-5.879a4.5 4.5 0 0 0-1.049-2.891c-.65-.76-1.54-1.226-2.544-1.226-1.388 0-2.464.829-3.163 2.134l-.402.75-.401-.75C7.847 5.65 6.77 4.821 5.382 4.821c-1.004 0-1.893.466-2.544 1.226m6.11 11.495-.195.37.2.088.199-.093z" clip-rule="evenodd"/></svg>
